public/language-1.svg

<?xml version="1.0" encoding="UTF-8"?>
<svg fill="none" viewBox="0 0 144 130" xmlns="http://www.w3.org/2000/svg">
<path d="m100.96 29.306c3.384 0 6.256 0.5115 8.617 1.5345 2.439 0.9444 4.407 2.3216 5.902 4.1316 1.495 1.7313 2.597 3.738 3.305 6.0202 0.708 2.2821 1.063 4.6823 1.063 7.2006 0 2.9904-0.276 6.0989-0.827 9.3254-0.472 3.2265-1.18 6.6891-2.125 10.388l-1.416 5.666-14.165 56.07-9.3256-2.597 8.0266-31.871 1.653-6.6104 4.958-19.595c1.023-4.1708 1.77-7.8695 2.243-11.096 0.472-3.3052 0.708-6.4137 0.708-9.3254 0-3.4626-0.748-6.0989-2.243-7.9089-1.495-1.8887-3.62-2.833-6.374-2.833-3.2268 0-5.8238 1.1017-7.7912 3.3052s-2.951 5.5087-2.951 9.9156c0 3.5413 0.8263 6.453 2.4789 8.7352s3.9347 3.9741 6.8465 5.0758c2.9908 1.0231 6.4138 1.5346 10.27 1.5346h2.007c5.508 0 10.033-0.9837 13.575-2.9511 3.541-2.0461 6.374-4.0528 8.499-6.0202h9.561v38.718h-57.723l2.1248-8.4991h46.037v-9.5615c0-1.81 0.039-3.6987 0.118-5.6661 0.078-1.9674 0.196-3.7774 0.354-5.43-2.282 1.9674-5.351 3.738-9.208 5.312-3.856 1.5739-8.381 2.3608-13.574 2.3608h-1.771c-4.25 0-8.145-0.4722-11.686-1.4165-3.5413-0.9443-6.6497-2.4002-9.3254-4.3676-2.6756-1.9674-4.761-4.4463-6.2562-7.4367-1.4166-2.9904-2.1248-6.5317-2.1248-10.624 0-4.0134 0.7869-7.6334 2.3608-10.86 1.6526-3.2265 4.0135-5.7841 7.0826-7.6728 3.0691-1.9674 6.7678-2.9511 11.096-2.9511zm-77.909 68.229c-4.1709 0-7.9876-1.0231-11.45-3.0692-3.4626-2.1247-6.217-5.3906-8.263-9.7975-1.9674-4.407-2.9511-10.152-2.9511-17.234 0-8.4204 1.6526-15.464 4.9578-21.13 3.3839-5.6661 7.8302-9.9156 13.339-12.749 5.5086-2.833 11.49-4.2495 17.942-4.2495 5.9808 0 11.096 0.905 15.346 2.715 4.3282 1.7313 7.8302 4.1708 10.506 7.3186 2.7544 3.0692 4.7611 6.6498 6.0202 10.742 1.3378 4.0134 2.0068 8.3417 2.0068 12.985 0 5.0365-0.5509 9.5221-1.6526 13.457-1.1018 3.9348-2.4396 7.6335-4.0135 11.096h31.399l-0.236 8.4991h-41.551l-0.4722-7.4368c1.81-2.7543 3.2659-6.1382 4.3676-10.152 1.1805-4.0921 1.7707-8.8138 1.7707-14.165 0-5.5874-0.9837-10.348-2.9511-14.283-1.9674-3.9348-4.7611-6.9252-8.3811-8.9713-3.5413-2.0461-7.7515-3.0691-12.631-3.0691-5.5086 0-10.23 1.3378-14.165 4.0134-3.9348 2.597-6.9646 6.1776-9.0893 10.742-2.1248 4.4856-3.1872 9.6008-3.1872 15.346 0 5.2726 0.59021 9.4828 1.7706 12.631 1.2592 3.0691 2.9118 5.3119 4.9578 6.7284 2.1248 1.3378 4.4857 2.0067 7.0826 2.0067 2.0461 0 3.8167-0.4328 5.312-1.2984 1.5739-0.9444 2.7936-2.2822 3.6593-4.0135 0.8656-1.7313 1.2985-3.8561 1.2985-6.3743 0-3.9348-1.0231-6.9252-3.0691-8.9713-2.0461-2.1248-4.6824-3.1872-7.9089-3.1872-3.1478 0-6.0989 0.8263-8.8533 2.4789-2.7543 1.6526-5.2726 3.7381-7.5547 6.2563l-1.7706-7.5547c2.3609-2.7544 5.2726-4.9972 8.7352-6.7285 3.5413-1.81 7.24-2.715 11.096-2.715 5.666 0 10.23 1.692 13.693 5.0759 3.5413 3.3052 5.3119 8.0269 5.3119 14.165 0 4.3282-0.8263 8.0662-2.4789 11.214-1.6526 3.1479-4.0135 5.5481-7.0826 7.2007-2.9904 1.6526-6.6104 2.4789-10.86 2.4789zm48.634-81.45c-2.2822 0-4.1709-0.7083-5.6661-2.1248-1.4952-1.4952-2.2428-3.4233-2.2428-5.7841 0-2.2822 0.7476-4.1708 2.2428-5.6661 1.4952-1.4952 3.3839-2.2428 5.6661-2.2428s4.1709 0.7476 5.6661 2.2428c1.4952 1.4952 2.2428 3.3839 2.2428 5.6661 0 2.3608-0.7476 4.2889-2.2428 5.7841-1.4952 1.4165-3.3839 2.1248-5.6661 2.1248z" fill="#4150EA" opacity=".78"/>
</svg>

<svg width="144" height="130" viewBox="0 0 144 130" fill="none" xmlns="http://www.w3.org/2000/svg">
<path opacity="0.78" d="M100.959 29.3056C104.343 29.3056 107.215 29.8171 109.576 30.8401C112.015 31.7845 113.983 33.1617 115.478 34.9717C116.973 36.703 118.075 38.7097 118.783 40.9919C119.491 43.274 119.846 45.6742 119.846 48.1925C119.846 51.1829 119.57 54.2914 119.019 57.5179C118.547 60.7444 117.839 64.207 116.894 67.9057L115.478 73.5717L101.313 129.642L91.9874 127.045L100.014 95.1736L101.667 88.5632L106.625 68.968C107.648 64.7972 108.395 61.0985 108.868 57.872C109.34 54.5668 109.576 51.4583 109.576 48.5466C109.576 45.084 108.828 42.4477 107.333 40.6377C105.838 38.749 103.713 37.8047 100.959 37.8047C97.7322 37.8047 95.1352 38.9064 93.1678 41.1099C91.2004 43.3134 90.2168 46.6186 90.2168 51.0255C90.2168 54.5668 91.0431 57.4785 92.6957 59.7607C94.3483 62.0429 96.6304 63.7348 99.5422 64.8365C102.533 65.8596 105.956 66.3711 109.812 66.3711H111.819C117.327 66.3711 121.852 65.3874 125.394 63.42C128.935 61.3739 131.768 59.3672 133.893 57.3998H143.454V96.118H85.7311L87.8559 87.6189H133.893V78.0574C133.893 76.2474 133.932 74.3587 134.011 72.3913C134.089 70.4239 134.207 68.6139 134.365 66.9613C132.083 68.9287 129.014 70.6993 125.157 72.2733C121.301 73.8472 116.776 74.6341 111.583 74.6341H109.812C105.562 74.6341 101.667 74.1619 98.1256 73.2176C94.5843 72.2733 91.4759 70.8174 88.8002 68.85C86.1246 66.8826 84.0392 64.4037 82.544 61.4133C81.1274 58.4229 80.4192 54.8816 80.4192 50.7894C80.4192 46.776 81.2061 43.156 82.78 39.9295C84.4326 36.703 86.7935 34.1454 89.8626 32.2567C92.9317 30.2893 96.6304 29.3056 100.959 29.3056ZM23.0503 97.5345C18.8794 97.5345 15.0627 96.5114 11.6001 94.4653C8.13748 92.3406 5.38314 89.0747 3.33706 84.6678C1.36968 80.2608 0.385986 74.5161 0.385986 67.4335C0.385986 59.0131 2.03859 51.9699 5.34379 46.3038C8.7277 40.6377 13.174 36.3882 18.6827 33.5551C24.1913 30.7221 30.1722 29.3056 36.6252 29.3056C42.606 29.3056 47.7213 30.2106 51.9708 32.0206C56.299 33.7519 59.801 36.1914 62.4766 39.3392C65.231 42.4084 67.2377 45.989 68.4968 50.0812C69.8346 54.0946 70.5036 58.4229 70.5036 63.0659C70.5036 68.1024 69.9527 72.588 68.851 76.5228C67.7492 80.4576 66.4114 84.1563 64.8375 87.6189H96.2369L96.0009 96.118H54.4497L53.9775 88.6812C55.7875 85.9269 57.2434 82.543 58.3451 78.5295C59.5256 74.4374 60.1158 69.7157 60.1158 64.3644C60.1158 58.777 59.1321 54.0159 57.1647 50.0812C55.1973 46.1464 52.4036 43.156 48.7836 41.1099C45.2423 39.0638 41.0321 38.0408 36.153 38.0408C30.6444 38.0408 25.9226 39.3786 21.9879 42.0542C18.0531 44.6512 15.0233 48.2318 12.8986 52.7962C10.7738 57.2818 9.71139 62.397 9.71139 68.1417C9.71139 73.4143 10.3016 77.6245 11.482 80.7724C12.7412 83.8415 14.3938 86.0843 16.4398 87.5008C18.5646 88.8386 20.9255 89.5075 23.5224 89.5075C25.5685 89.5075 27.3391 89.0747 28.8344 88.2091C30.4083 87.2647 31.628 85.9269 32.4937 84.1956C33.3593 82.4643 33.7922 80.3395 33.7922 77.8213C33.7922 73.8865 32.7691 70.8961 30.7231 68.85C28.677 66.7252 26.0407 65.6628 22.8142 65.6628C19.6664 65.6628 16.7153 66.4891 13.9609 68.1417C11.2066 69.7943 8.68835 71.8798 6.40618 74.398L4.63554 66.8433C6.9964 64.0889 9.90813 61.8461 13.3707 60.1148C16.912 58.3048 20.6107 57.3998 24.4668 57.3998C30.1328 57.3998 34.6972 59.0918 38.1598 62.4757C41.7011 65.7809 43.4717 70.5026 43.4717 76.6409C43.4717 80.9691 42.6454 84.7071 40.9928 87.8549C39.3402 91.0028 36.9793 93.403 33.9102 95.0556C30.9198 96.7082 27.2998 97.5345 23.0503 97.5345ZM71.684 16.0848C69.4018 16.0848 67.5131 15.3765 66.0179 13.96C64.5227 12.4648 63.7751 10.5367 63.7751 8.17588C63.7751 5.89372 64.5227 4.00503 66.0179 2.50982C67.5131 1.0146 69.4018 0.266998 71.684 0.266998C73.9662 0.266998 75.8549 1.0146 77.3501 2.50982C78.8453 4.00503 79.5929 5.89372 79.5929 8.17588C79.5929 10.5367 78.8453 12.4648 77.3501 13.96C75.8549 15.3765 73.9662 16.0848 71.684 16.0848Z" fill="#4150EA"/>
</svg>
